!!!OTL: Winterrosen
!!!OTL-incipit:Es wollt ein Maedchen Wasser hol'n
!!!ARE: Europa, Mitteleuropa, Deutschland (), Brandenburg a.d. Havel
!!!YOR: 7, S. 45
!!    1847 aufgezeichnet
!!!SCT: Q0145
!!!TXL: @@DE
!!!YEM: Copyright 1995, estate of Helmut Schaffrath.
**kern	**text
*ICvox	*
*M4/4	*
*met(c)	*
*k[b-e-]	*
*B-:	*
!LO:TX:a:t=Mäßig geschwinde	!
{4f	1._Es
=1	=1
4b-	wollt
4f	ein
4d	Mäd-
4f	-chen
=2	=2
4b-	Was-
4b-	-ser
4b-}	hol'n
{4b-	aus
=3	=3
4cc	ei-
4b-	-nem
4a	küh-
4g	-len
=4	=4
(4g	Brun-
4f)	.
4f	-nen,
4r}	.
=5	=5
{4d	hm
4e-	hm
4f	hm,
4r	.
=6	=6
4f	ha
4f	ha
4b-}	ha,
{4b-	aus
=7	=7
4cc	ei-
4dd	-nem
4ee-	kün-
4f	-len
=8	=8
(4f	Brun-
4b-)	.
4b-}	-nen.
==	==
!!!AGN: Ballade, Verfuehrung, verlorene Ehre
!! Dritte Zeile = Refrain auf sinnfreie Silben.
!!!ONB: ESAC (Essen Associative Code) Database: BALLADE
!!!AMT: simple quadruple
!!!AIN: vox
!!!EED: Helmut Schaffrath
!!!EEV: 1.0
!!@@COMMENT:"E 1988. Brandenburg a. d. Havel, 1847."
!!@@END:
!!!source: Deutsche Volkslieder mit ihren Melodien Balladen. Herausgegeben vom Deutschen Volksliedarchiv. Siebenterer Band. Freiburg/Breisgau 1982.
!!!page: 45
!!!ENC: Anna Maria Matuszewska
!!!EEV: 2025/03/07
*-	*-
